src/components/Home/Core/assets/core-analytics.svg

<svg width="93" height="76" viewBox="0 0 93 76" fill="none" xmlns="http://www.w3.org/2000/svg">
<path d="M92.0026 75.6488H33.7617V0H74.7363L92.0011 17.2648V75.6488H92.0026Z" fill="white"/>
<path d="M90.2113 19.8041H72.1953V1.78809H75.7726L90.2113 16.2268V19.8041Z" fill="#B69538"/>
<path d="M7.00774 75.9152C5.21165 75.9152 3.41705 75.2326 2.05023 73.8658C-0.683409 71.1321 -0.683409 66.6844 2.05023 63.9508L17.8946 48.1064L27.8096 58.0214L11.9653 73.8658C10.5984 75.2311 8.80234 75.9152 7.00774 75.9152Z" fill="#B69538"/>
<path d="M92.0026 75.6488H33.7617V0H74.7363L92.0011 17.2648V75.6488H92.0026ZM37.3405 72.0715H88.4268V18.7479L73.2562 3.57727H37.3405V72.0715Z" fill="#4C4C4C"/>
<path d="M82.102 45.6338H75.8984V49.211H82.102V45.6338Z" fill="#4C4C4C"/>
<path d="M72.3903 46.1904H64.9062V49.7677H72.3903V46.1904Z" fill="#4C4C4C"/>
<path d="M72.3944 55.999H44.2383V59.5763H72.3944V55.999Z" fill="#4C4C4C"/>
<path d="M82.0966 24.9014H76.7695V28.4786H82.0966V24.9014Z" fill="#4C4C4C"/>
<path d="M82.0996 35.2666H67.7891V38.8438H82.0996V35.2666Z" fill="#4C4C4C"/>
<path d="M7.00774 75.9152C5.21165 75.9152 3.41705 75.2326 2.05023 73.8658C-0.683409 71.1321 -0.683409 66.6844 2.05023 63.9508L17.8946 48.1064L27.8096 58.0214L11.9653 73.8658C10.5984 75.2311 8.80234 75.9152 7.00774 75.9152ZM17.8946 53.1653L4.57966 66.4802C3.24116 67.8187 3.24116 69.9963 4.57966 71.3348C5.91815 72.6733 8.09583 72.6733 9.43433 71.3348L22.7493 58.0199L17.8946 53.1653Z" fill="#4C4C4C"/>
<path d="M39.5349 66.9663C39.5334 66.9663 39.5349 66.9663 39.5349 66.9663C31.3534 66.9663 23.6697 63.787 17.8969 58.0157C5.96667 46.0855 5.96667 26.6714 17.8969 14.7412C29.8286 2.80949 49.2412 2.81098 61.1714 14.7412C73.1016 26.6714 73.1016 46.0855 61.1714 58.0157C55.4001 63.7885 47.7149 66.9663 39.5349 66.9663Z" fill="white"/>
<path d="M39.5327 52.8554C35.0984 52.8554 30.9323 51.1324 27.8037 48.0038C21.3363 41.5364 21.3363 31.0132 27.8037 24.5459C34.2711 18.0785 44.7943 18.0785 51.2617 24.5459C57.7291 31.0132 57.7291 41.5364 51.2617 48.0038C48.1331 51.1324 43.967 52.8554 39.5327 52.8554Z" fill="#B69538"/>
<path d="M39.5338 63.5385C39.5323 63.5385 39.5338 63.5385 39.5338 63.5385C32.2675 63.5385 25.4454 60.7169 20.321 55.5925C9.72634 44.9978 9.72634 27.7599 20.321 17.1667C30.9156 6.57204 48.1535 6.57204 58.7482 17.1667C69.3428 27.7614 69.3428 44.9993 58.7482 55.5939C53.6223 60.7169 46.7986 63.5385 39.5338 63.5385ZM39.5338 12.7965C33.4912 12.7965 27.4502 15.0964 22.8504 19.6961C13.6509 28.8956 13.6509 43.8635 22.8504 53.063C27.2996 57.5123 33.2244 59.9612 39.5338 59.9612C45.8432 59.9612 51.768 57.5108 56.2173 53.063C65.4168 43.8635 65.4168 28.8956 56.2173 19.6961C51.6175 15.0964 45.5749 12.7965 39.5338 12.7965Z" fill="#4C4C4C"/>
<path d="M39.5365 55.3284C34.6819 55.3284 29.8272 53.4801 26.1307 49.7851C22.5549 46.2093 20.5859 41.4486 20.5859 36.3793C20.5859 31.31 22.5549 26.5492 26.1307 22.9735C29.7065 19.3977 34.4672 17.4287 39.5365 17.4287C44.6058 17.4287 49.3665 19.3977 52.9423 22.9735C60.3338 30.365 60.3338 42.3921 52.9423 49.7836C49.2458 53.4801 44.3912 55.3284 39.5365 55.3284ZM39.5365 21.006C35.4226 21.006 31.5607 22.6023 28.6601 25.5029C25.7596 28.402 24.1632 32.2654 24.1632 36.3793C24.1632 40.4932 25.7596 44.3551 28.6601 47.2557C34.6565 53.2521 44.415 53.2521 50.4114 47.2557C56.4078 41.2593 56.4078 31.5008 50.4114 25.5044C47.5123 22.6038 43.6489 21.006 39.5365 21.006Z" fill="#4C4C4C"/>
<path d="M34.049 30.8927L31.5195 28.3633C33.6584 26.2244 36.5054 25.0469 39.5356 25.0469C42.5673 25.0469 45.4143 26.2244 47.5517 28.3633L45.0222 30.8927C43.56 29.4305 41.6104 28.6242 39.5356 28.6242C37.4608 28.6242 35.5127 29.429 34.049 30.8927Z" fill="#4C4C4C"/>
<path d="M90.2113 19.8041H72.1953V1.78809H75.7726V16.2268H90.2113V19.8041Z" fill="#4C4C4C"/>
</svg>

<svg width="93" height="76" fill="none" xmlns="http://www.w3.org/2000/svg"><path d="M92.003 75.649H33.762V0h40.974l17.265 17.265v58.384h.002z" fill="#fff"/><path d="M90.211 19.804H72.195V1.788h3.578L90.21 16.227v3.577zM7.008 75.915a6.987 6.987 0 0 1-4.958-2.05 7.019 7.019 0 0 1 0-9.914l15.845-15.845 9.915 9.915-15.845 15.845a6.996 6.996 0 0 1-4.957 2.05z" fill="#B69538"/><path d="M92.003 75.649H33.762V0h40.974l17.265 17.265v58.384h.002zM37.34 72.07h51.087V18.748l-15.17-15.17H37.34V72.07z" fill="#4C4C4C"/><path d="M82.102 45.634h-6.204v3.577h6.204v-3.577zm-9.712.556h-7.484v3.578h7.484V46.19zM72.394 56H44.238v3.577h28.156V56zm9.703-31.098h-5.328v3.578h5.328V24.9zm.003 10.366H67.79v3.577H82.1v-3.577zM7.008 75.915a6.987 6.987 0 0 1-4.958-2.05 7.019 7.019 0 0 1 0-9.914l15.845-15.845 9.915 9.915-15.845 15.845a6.996 6.996 0 0 1-4.957 2.05zm10.887-22.75L4.58 66.48a3.436 3.436 0 0 0 0 4.855 3.437 3.437 0 0 0 4.854 0L22.75 58.02l-4.854-4.855z" fill="#4C4C4C"/><path d="M39.535 66.966c-.002 0 0 0 0 0-8.182 0-15.865-3.179-21.638-8.95-11.93-11.93-11.93-31.345 0-43.275 11.932-11.932 31.344-11.93 43.274 0s11.93 31.345 0 43.275c-5.77 5.773-13.456 8.95-21.636 8.95z" fill="#fff"/><path d="M39.533 52.855c-4.435 0-8.6-1.723-11.73-4.851-6.467-6.468-6.467-16.99 0-23.458 6.468-6.468 16.991-6.468 23.459 0 6.467 6.467 6.467 16.99 0 23.458a16.477 16.477 0 0 1-11.73 4.851z" fill="#B69538"/><path d="M39.534 63.538c-.002 0 0 0 0 0-7.267 0-14.089-2.821-19.213-7.945-10.595-10.595-10.595-27.833 0-38.426 10.595-10.595 27.832-10.595 38.427 0 10.595 10.594 10.595 27.832 0 38.427-5.126 5.123-11.95 7.944-19.214 7.944zm0-50.741c-6.043 0-12.084 2.3-16.684 6.9-9.2 9.199-9.2 24.167 0 33.366 4.45 4.45 10.374 6.898 16.684 6.898 6.31 0 12.234-2.45 16.683-6.898 9.2-9.2 9.2-24.167 0-33.367-4.6-4.6-10.642-6.9-16.683-6.9z" fill="#4C4C4C"/><path d="M39.536 55.328c-4.854 0-9.709-1.848-13.405-5.543-3.576-3.576-5.545-8.336-5.545-13.406 0-5.069 1.969-9.83 5.545-13.405 3.575-3.576 8.336-5.545 13.405-5.545 5.07 0 9.83 1.969 13.406 5.545 7.392 7.391 7.392 19.418 0 26.81a18.9 18.9 0 0 1-13.406 5.544zm0-34.322a15.275 15.275 0 0 0-10.876 4.497 15.273 15.273 0 0 0-4.497 10.876c0 4.114 1.597 7.976 4.497 10.877 5.997 5.996 15.755 5.996 21.751 0 5.997-5.997 5.997-15.755 0-21.752a15.273 15.273 0 0 0-10.875-4.498z" fill="#4C4C4C"/><path d="M34.049 30.893l-2.53-2.53a11.26 11.26 0 0 1 8.017-3.316c3.031 0 5.878 1.177 8.016 3.316l-2.53 2.53a7.709 7.709 0 0 0-5.486-2.269 7.705 7.705 0 0 0-5.487 2.269zm56.162-11.089H72.195V1.788h3.578v14.439H90.21v3.577z" fill="#4C4C4C"/></svg>
